X: 31679
T: Parting Glass, The
R: barndance
M: 4/4
K: Eminor
||BA|G2 E2 E2 DE|G2 G2 A2 GA|B2 B2 BAGA|B2 D2 D2 BA|
G2 E2 E2 DE|G2 G2 A2 GA|B2 e2 dBAB|G3 E E3 d||
dBe2 d3 d|dBe2 d3 B|c3 B A2 GA|B2 D2 D2 BA|
G2 E2 E2 DE|G2 G2 A2 GA|B2 e2 dBAB|G3 E HE2||

